X:1
T:Längtan till landet
C:Musik: Otto Lindblad
C:Arr: Ivar Widéen
L:1/8
M:none
I:linebreak $
K:G
V:1 treble-8 nm="S A"
V:1
"^10" G2 DD G2 DD | F2 E2 D2 z2 |"^20" D2 GA B2 Be | d2 AA A2 z2 |"^30" B2 BB B2 AB | %5
w: LET oss nu fatt- a i|vå- ra glas;|IN- PUT en klunk ut- av|det som där has;|IF du fått nog THEN till|
 c2 cB A2 z2 |$"^40" F2 FG A2 AB | G2 GD G2"^50" z2 |] %8
w: 5- 0 min vän;|ELSE GO- TO- ba- ka till|1- 0 i- gen;|

